src/img/global/yandex.svg

<?xml version="1.0" encoding="UTF-8"?>
<svg width="220px" height="82px" viewBox="0 0 220 82" version="1.1" xmlns="http://www.w3.org/2000/svg" xmlns:xlink="http://www.w3.org/1999/xlink">
    <title>Yandex</title>
    <defs>
        <polygon id="path-1" points="0 0 49.142825 0 49.142825 49.1428571 0 49.1428571"></polygon>
    </defs>
    <g id="Main" stroke="none" stroke-width="1" fill="none" fill-rule="evenodd">
        <g id="Desktop-HD-/-Export" transform="translate(-609.000000, -6440.000000)">
            <g id="Reviews" transform="translate(-102.000000, 5637.870104)">
                <g id="Group" transform="translate(711.747253, 802.129896)">
                    <text id="Отзывы-Яндекса" font-family="SFUIDisplay-Medium, SF UI Display" font-size="16" font-weight="400" line-spacing="30" fill="#414141">
                        <tspan x="76.5168777" y="24.2967033">Отзывы Яндекса</tspan>
                    </text>
                    <g id="Group-6" transform="translate(17.768837, 16.054235)">
                        <g id="Group-3">
                            <mask id="mask-2" fill="white">
                                <use xlink:href="#path-1"></use>
                            </mask>
                            <g id="Clip-2"></g>
                            <path d="M49.1428892,24.5714446 C49.1428892,38.1418781 38.1418781,49.1428892 24.5714446,49.1428892 C11.0010112,49.1428892 9.59232693e-14,38.1418781 9.59232693e-14,24.5714446 C9.59232693e-14,11.0008507 11.0010112,1.03028697e-13 24.5714446,1.03028697e-13 C38.1418781,1.03028697e-13 49.1428892,11.0008507 49.1428892,24.5714446" id="Fill-1" fill="#FC3F1D" mask="url(#mask-2)"></path>
                        </g>
                        <path d="M27.0746172,14.9184573 L25.0047959,14.9184573 C21.2100433,14.9184573 19.2169355,16.8223334 19.2169355,19.6401921 C19.2169355,22.8388901 20.5968164,24.3237305 23.4332917,26.2279276 L25.7714499,27.7890001 L19.0253121,37.8038089 L14.0041057,37.8038089 L20.0601425,28.8552862 C16.5722441,26.3800708 14.6173326,23.9812478 14.6173326,19.9067636 C14.6173326,14.8041895 18.1821051,11.3389199 24.9664391,11.3389199 L31.7125769,11.3389199 L31.7125769,37.8038089 L27.0746172,37.8038089 L27.0746172,14.9184573 Z" id="Fill-4" fill="#FFFFFF"></path>
                    </g>
                    <g id="Group-6" transform="translate(76.082834, 38.389400)" fill="#F7C70A">
                        <polygon id="Fill-1" points="11.0766816 0 8.07663258 7.38468329 0 8.07697589 6.23046176 13.1539027 4.15358395 21 11.0766816 16.8460727 17.9997793 21 15.9229015 13.1539027 22.1535349 8.07697589 14.0767307 7.38468329"></polygon>
                        <polygon id="Fill-2" points="37.0389416 0 34.0388926 7.38468329 25.9620883 8.07697589 32.1928934 13.1539027 30.1160156 21 37.0389416 16.8460727 43.9620393 21 41.8849898 13.1539027 48.1157949 8.07697589 40.038819 7.38468329"></polygon>
                        <polygon id="Fill-3" points="63.0012016 0 60.0011526 7.38468329 51.9243483 8.07697589 58.1551534 13.1539027 56.0781039 21 63.0012016 16.8460727 69.9242993 21 67.8472498 13.1539027 74.0780549 8.07697589 66.001079 7.38468329"></polygon>
                        <polygon id="Fill-4" points="88.9634616 0 85.9635842 7.38468329 77.8866083 8.07697589 84.1174134 13.1539027 82.0403639 21 88.9634616 16.8460727 95.8865593 21 93.8095098 13.1539027 100.040315 8.07697589 91.963339 7.38468329"></polygon>
                        <polygon id="Fill-5" points="114.925722 0 111.925844 7.38468329 103.848868 8.07697589 110.079673 13.1539027 108.002624 21 114.925722 16.8460727 121.848819 21 119.77177 13.1539027 126.002575 8.07697589 117.925771 7.38468329"></polygon>
                    </g>
                    <rect id="Rectangle" stroke="#E9E9EA" stroke-width="2" x="1" y="1" width="217.252747" height="80" rx="15"></rect>
                </g>
            </g>
        </g>
    </g>
</svg>

<svg xmlns="http://www.w3.org/2000/svg" xmlns:xlink="http://www.w3.org/1999/xlink" width="220" height="82" viewBox="0 0 220 82">
    <defs>
        <path id="c021yiigia" d="M0 0L49.143 0 49.143 49.143 0 49.143z"/>
    </defs>
    <g fill="none" fill-rule="evenodd">
        <g>
            <g>
                <g transform="translate(-609.000000, -6440.000000) translate(-102.000000, 5637.870104) translate(711.747253, 802.129896)">
                    <text fill="#414141" font-family="SFUIDisplay-Medium, SF UI Display" font-size="16" font-weight="400">
                        <tspan x="76.517" y="24.297">Отзывы Яндекса</tspan>
                    </text>
                    <g>
                        <g transform="translate(17.768837, 16.054235)">
                            <mask id="xja4vcoijb" fill="#fff">
                                <use xlink:href="#c021yiigia"/>
                            </mask>
                            <path fill="#FC3F1D" d="M49.143 24.571c0 13.57-11.001 24.572-24.572 24.572C11.001 49.143 0 38.142 0 24.57 0 11.001 11.001 0 24.571 0c13.57 0 24.572 11 24.572 24.571" mask="url(#xja4vcoijb)"/>
                        </g>
                        <path fill="#FFF" d="M27.075 14.918h-2.07c-3.795 0-5.788 1.904-5.788 4.722 0 3.199 1.38 4.684 4.216 6.588l2.338 1.561-6.746 10.015h-5.02l6.055-8.949c-3.488-2.475-5.443-4.874-5.443-8.948 0-5.103 3.565-8.568 10.35-8.568h6.746v26.465h-4.638V14.918z" transform="translate(17.768837, 16.054235)"/>
                    </g>
                    <g fill="#F7C70A">
                        <path d="M11.077 0L8.077 7.385 0 8.077 6.23 13.154 4.154 21 11.077 16.846 18 21 15.923 13.154 22.154 8.077 14.077 7.385zM37.039 0L34.039 7.385 25.962 8.077 32.193 13.154 30.116 21 37.039 16.846 43.962 21 41.885 13.154 48.116 8.077 40.039 7.385zM63.001 0L60.001 7.385 51.924 8.077 58.155 13.154 56.078 21 63.001 16.846 69.924 21 67.847 13.154 74.078 8.077 66.001 7.385zM88.963 0L85.964 7.385 77.887 8.077 84.117 13.154 82.04 21 88.963 16.846 95.887 21 93.81 13.154 100.04 8.077 91.963 7.385zM114.926 0L111.926 7.385 103.849 8.077 110.08 13.154 108.003 21 114.926 16.846 121.849 21 119.772 13.154 126.003 8.077 117.926 7.385z" transform="translate(76.082834, 38.389400)"/>
                    </g>
                    <rect width="217.253" height="80" x="1" y="1" stroke="#E9E9EA" stroke-width="2" rx="15"/>
                </g>
            </g>
        </g>
    </g>
</svg>
